X:117
T:Gusty's Frolics  
B:CRE2.105 (SÃÂÃÂÃÂÃÂºgradh AibhistÃÂÃÂÃÂÃÂ­n)
F:file ID: cre.2/117gusty
N:Occasionally seen as "Gurty's Frolics"
L:1/8
M:9/8
R:slip jig
Q:160
K:G
"D modal"
A,DD DCD FEF|A,DD DFA GEC|A,DD DCD FDF|G2E ECE GFE|
"5"A,DD DCD FEF|A,DD DFA GEC|A,DD A,DD FDF|G2E ECE GFE||
"9"FDF AB^G A2G|FDF ABc dAG|FED AB^G A2F|GAG ECE GFE|
"13"FDF AB^G A2G|FDF ABc dAG|FED dcB A2F|GAG ECE GFE||
"17"Ddd d^cd fef|Add dfa gec|Add dAd fdf|g2e ece gfe|
"21"Add d^cd fef|Add dfa gec|Add Add fdf|g2e ece gfe||
"25"dfd cec d2B|AFD DFD AFD|GBd dcB cBc|GEC CEC GEC|
"29"de/f/d cec d2B|AFD DFD AFD|GBd dcB cBc|GEC CEF GEC||

%%%

